X:1
T:Gia mi dols'io
T:Gia mi dols'io
T:Enrico Radesca di Foggia
T:Source : Canzonette a 2 voci---Libro III---Venetia---G.Vincenti---1616. Editor : André Vierendeels (08/04/14).
T:Notes : Original clefs  C1, F4 Editorial accidentals above the staff Note values have been halved Dotted brackets indicate black notes Continuo slightly adapted 
C:Enrico Radesca di Foggio
%%score [ 1 2 ] 3
L:1/8
Q:1/4=80
M:6/4
K:F
V:1 treble nm="Soprano" snm="S"
V:2 bass nm="Bass" snm="B"
V:3 bass nm="MusicXML Part"
V:1
 G2 B2 A2 B4 A2 | A4 A2 G4 G2 | A2 B2 c2 d4 c2 | c4 c2 B4 B2 | d2 c2 B2 A3 G F2 | G2 G4 F6 | %6
w: Gia mi dol- s'io ch'a-|cer- b'or- go- glio,|del mio bel Sol tur-|bas- se'i ra- i,|si che ria nu- be di|cor- do- glio,|
w: Hor che lon- tan da|ca- ri'ar- do- ri,|pro- vo d'A- mor le|ve- re pe- ne,|u- so giu- rar, ch'a quei|do- lo- ri,|
w: Oc- chi se- re- ni'al|cui bel fo- co,|ho- re go- dei tran-|quil- l'e lie- te,|ben mi ri- vol- go'al dol-|ce lo- co,|
 c2 B2 A2 B3 B c2 | B2 A4 G6 :: d2 B2 A2 G6 | _e2 d2 d2 c4 c2 | c2 A2 G2 F6 | d2 c2 c2 B4 B2 | %12
w: lun- ge da me non gis-|se ma- i,|gia li dol- s'io|ch'em- pio ve- ne- no,|di ge- lo- sia|m'em- ple- va'il se- no,|
w: no- me di duol non si|con- vie- ne:|las- so, ch'A- mor|non da fe- ri- ta,|ch'a l'a- ma- ror|tol- ga la vi- ta,|
w: o- ve si lun- ge'ho- ra|splen- de- te,|ma per- che sem-|pre'a voi mi gi- ri,|mai non an- vien,|ch'io vi ri- mi- ri,|
 G2 G2 A2 B3 B c2 | B2 A4 G6 :| %14
w: si ch'el mio cor sen ve-|nia me- no.|
w: se non con stral di di-|par- ti- ta.|
w: u- ni- co se- gno'a miei|mar- ti- ri.|
V:2
 G,2 G,2 F,2 _E,4 C,2 | D,4 D,2 G,,4 G,,2 | F,2 _E,2 C,2 B,,4 E,2 | F,4 F,2 B,,4 B,,2 | %4
w: Gia mi dol- s'io ch'a-|cer- b'or- go- glio,|del mio bel Sol tur-|bas- se'i ra- i,|
w: Hor che lon- tan da|na- ri'ar- do- ri,|pro- vo d'A- mor le|ve- re pe- ne,|
w: Oc- chi se- re- ni'al|cui bel fo- co,|ho- re go- dei tran-|quil- l'e lie- te,|
"^b" B,2 A,2 G,2 F,3 E, D,2 | B,,2 C,4 F,,6 | F,2 G,2 F,2 _E,3 D, C,2 | C,2 D,4 G,,6 :: %8
w: si che ria nu- be di|cor- do- glio,|lun- ge da me non gis-|se ma- i,|
w: u- so giu- rar, ch'a quei|do- lo- ri,|no- me di duol non si|con- vie- ne:|
w: ben mi ri- vol- go'al dol-|ce lo- co,|o- ve si lun- ge'ho- ra|splen- de- te,|
 G,2 G,2 F,2 _E,6 | C,2 G,2 G,2 C,4 C,2 | F,2 F,2 _E,2 D,6 | B,,2 F,2 F,2 B,,4 B,,2 | %12
w: gia li dol- s'io|ch'em- pio ve- ne- no,|di ge- lo- sia,|m'em- ple- va'il se- no,|
w: las- so, ch'A- mor|non da fe- ri- ta,|ch'a m'a- ma- ror|tol- ga la vi- ta,|
w: ma per- che sem-|pre'a voi mi gi- ri,|mai non an- vien,|ch'io vi ri- mi- ri,|
 _E,2 E,2 E,2 E,3 D, C,2 | C,2 D,4 G,,6 :| %14
w: si ch'el mio cor sen ve-|nia me- no.|
w: se non con stral di di-|par- ti- ta.|
w: u- ni- co se- gna'a miei|mar- ti- ri.|
V:3
 G,4 F,2 _E,4 C,2 | D,6 G,,6 | F,2 _E,2 C,2 B,,4 E,2 | F,6 B,,6 |"^b" B,2 A,2 G,2 F,3 E, D,2 | %5
 B,,2 C,4 F,,6 | F,2 G,2 F,2 _E,3 D, C,2 | C,2 D,4 G,,6 :: G,4 F,2 _E,6 | C,2 G,4 C,6 | %10
 F,4 _E,2 D,6 | B,,2 F,4 B,,6 | _E,6 E,3 D, C,2 | C,2 D,4 G,,6 :| %14

